icons-rebrand/svg/create-a-group-regular.svg

<svg width="32" height="32" viewBox="0 0 32 32" xmlns="http://www.w3.org/2000/svg">
<path fill-rule="evenodd" clip-rule="evenodd" d="M2.25 8C2.25 5.37665 4.37665 3.25 7 3.25H25C27.6234 3.25 29.75 5.37665 29.75 8V18C29.75 20.6234 27.6234 22.75 25 22.75H7C4.37665 22.75 2.25 20.6234 2.25 18V8ZM7 4.75C5.20507 4.75 3.75 6.20507 3.75 8V18C3.75 19.7949 5.20507 21.25 7 21.25H25C26.7949 21.25 28.25 19.7949 28.25 18V8C28.25 6.20507 26.7949 4.75 25 4.75H7ZM11 10.0071C11 9.59289 11.3358 9.2571 11.75 9.2571L24.25 9.2571C24.6642 9.2571 25 9.59289 25 10.0071C25 10.4213 24.6642 10.7571 24.25 10.7571L11.75 10.7571C11.3358 10.7571 11 10.4213 11 10.0071ZM11.75 15.2571C11.3358 15.2571 11 15.5929 11 16.0071C11 16.4213 11.3358 16.7571 11.75 16.7571L24.25 16.7571C24.6642 16.7571 25 16.4213 25 16.0071C25 15.5929 24.6642 15.2571 24.25 15.2571L11.75 15.2571ZM11 27.0071C11 26.5929 11.3358 26.2571 11.75 26.2571L24.25 26.2571C24.6642 26.2571 25 26.5929 25 27.0071C25 27.4213 24.6642 27.7571 24.25 27.7571L11.75 27.7571C11.3358 27.7571 11 27.4213 11 27.0071ZM7.49992 11.2563C8.19105 11.2563 8.75131 10.696 8.75131 10.0049C8.75131 9.31376 8.19105 8.75349 7.49992 8.75349C6.8088 8.75349 6.24854 9.31376 6.24854 10.0049C6.24854 10.696 6.8088 11.2563 7.49992 11.2563ZM8.75146 16.0049C8.75146 16.696 8.19116 17.2563 7.5 17.2563C6.80884 17.2563 6.24854 16.696 6.24854 16.0049C6.24854 15.3137 6.80884 14.7534 7.5 14.7534C8.19116 14.7534 8.75146 15.3137 8.75146 16.0049ZM7.5 28.2563C8.19116 28.2563 8.75146 27.696 8.75146 27.0049C8.75146 26.3137 8.19116 25.7534 7.5 25.7534C6.80884 25.7534 6.24854 26.3137 6.24854 27.0049C6.24854 27.696 6.80884 28.2563 7.5 28.2563Z" fill="black"/>
</svg>

<svg width="32" height="32" viewBox="0 0 32 32" xmlns="http://www.w3.org/2000/svg"><path d="M2.25 8A4.75 4.75 0 0 1 7 3.25h18A4.75 4.75 0 0 1 29.75 8v10A4.75 4.75 0 0 1 25 22.75H7A4.75 4.75 0 0 1 2.25 18V8ZM7 4.75A3.25 3.25 0 0 0 3.75 8v10A3.25 3.25 0 0 0 7 21.25h18A3.25 3.25 0 0 0 28.25 18V8A3.25 3.25 0 0 0 25 4.75H7Zm4 5.257a.75.75 0 0 1 .75-.75h12.5a.75.75 0 0 1 0 1.5h-12.5a.75.75 0 0 1-.75-.75Zm.75 5.25a.75.75 0 0 0 0 1.5h12.5a.75.75 0 0 0 0-1.5h-12.5ZM11 27.007a.75.75 0 0 1 .75-.75h12.5a.75.75 0 0 1 0 1.5h-12.5a.75.75 0 0 1-.75-.75Zm-3.5-15.75a1.251 1.251 0 1 0 0-2.504 1.251 1.251 0 0 0 0 2.503Zm1.251 4.748a1.251 1.251 0 1 1-2.502 0 1.251 1.251 0 0 1 2.502 0ZM7.5 28.256a1.251 1.251 0 1 0 0-2.503 1.251 1.251 0 0 0 0 2.503Z"/></svg>
